static/assets/images/tokens/bbtc.svg

<svg width="256" height="256" viewBox="0 0 256 256" fill="none" xmlns="http://www.w3.org/2000/svg">
<path fill-rule="evenodd" clip-rule="evenodd" d="M128 256C198.934 256 256 198.934 256 128C256 57.0662 198.934 0 128 0C57.0662 0 0 57.0662 0 128C0 198.934 57.0662 256 128 256Z" fill="#89775C"/>
<path fill-rule="evenodd" clip-rule="evenodd" d="M185.634 113.645C188.339 96.9446 175.718 87.7992 158.382 81.4787L164.256 59.0459L150.517 55.4474L144.751 77.4638L133.77 74.5877L139.536 52.5713L125.9 49L119.985 71.5889L92.1159 64.2896L88.2655 78.9933C88.2655 78.9933 98.4617 81.4691 98.2578 81.6104C100.14 81.8884 101.842 82.8863 103.003 84.394C104.164 85.9016 104.695 87.8013 104.483 89.6926L88.2915 151.526C88.0841 152.158 87.7521 152.742 87.3151 153.244C86.878 153.746 86.3448 154.155 85.747 154.447C85.1563 154.749 84.5104 154.929 83.8484 154.976C83.1864 155.022 82.5218 154.934 81.8946 154.717C82.0358 154.921 71.9023 152.1 71.9023 152.1L65 167.84L92.609 175.071L86.5984 198.024L100.338 201.623L106.26 179.008L117.241 181.884L111.346 204.395L125.112 208L131.054 185.307C154.633 189.981 172.318 188.495 180.038 167.296C186.257 150.237 180.079 140.277 167.762 133.686C176.78 131.849 183.632 125.857 185.634 113.645ZM118.989 132.202L111.057 162.494C111.82 162.694 112.713 162.942 113.712 163.219L113.715 163.22C124.921 166.331 149.476 173.147 153.58 157.475C157.77 141.473 134.069 135.823 122.439 133.05L122.437 133.049C121.111 132.733 119.942 132.454 118.989 132.202ZM129.837 90.8825L122.627 118.416C123.292 118.59 124.076 118.811 124.956 119.058L124.959 119.058C134.341 121.695 154.643 127.399 158.381 113.125C162.214 98.4899 142.317 93.8281 132.642 91.5612C131.565 91.3088 130.614 91.086 129.837 90.8825Z" fill="white"/>
<path fill-rule="evenodd" clip-rule="evenodd" d="M244 128C244 192.065 192.065 244 128 244C63.935 244 12 192.065 12 128C12 63.935 63.935 12 128 12C192.065 12 244 63.935 244 128ZM128 233.209C186.105 233.209 233.209 186.105 233.209 128C233.209 69.8945 186.105 22.7907 128 22.7907C69.8945 22.7907 22.7907 69.8945 22.7907 128C22.7907 186.105 69.8945 233.209 128 233.209Z" fill="white"/>
</svg>

<svg xmlns="http://www.w3.org/2000/svg" fill="none" viewBox="0 0 256 256"><path fill="#89775C" fill-rule="evenodd" d="M128 256c70.934 0 128-57.066 128-128S198.934 0 128 0 0 57.066 0 128s57.066 128 128 128" clip-rule="evenodd"/><path fill="#fff" fill-rule="evenodd" d="M185.634 113.645c2.705-16.7-9.916-25.846-27.252-32.166l5.874-22.433-13.739-3.599-5.766 22.017-10.981-2.876 5.766-22.017L125.9 49l-5.915 22.589-27.87-7.3-3.85 14.704s10.197 2.476 9.993 2.617a7.344 7.344 0 0 1 6.225 8.083l-16.192 61.833a4.98 4.98 0 0 1-2.544 2.921 4.93 4.93 0 0 1-3.852.27c.14.204-9.993-2.617-9.993-2.617L65 167.84l27.609 7.231-6.01 22.953 13.739 3.599 5.922-22.615 10.981 2.876-5.895 22.511L125.112 208l5.942-22.693c23.579 4.674 41.264 3.188 48.984-18.011 6.219-17.059.041-27.019-12.276-33.61 9.018-1.837 15.87-7.829 17.872-20.041m-66.645 18.557-7.932 30.292c.763.2 1.656.448 2.655.725l.003.001c11.206 3.111 35.761 9.927 39.865-5.745 4.19-16.002-19.511-21.652-31.141-24.425l-.002-.001a156 156 0 0 1-3.448-.847m10.848-41.32-7.21 27.534c.665.174 1.449.395 2.329.642h.003c9.382 2.637 29.684 8.341 33.422-5.933 3.833-14.635-16.064-19.297-25.739-21.564a115 115 0 0 1-2.805-.679" clip-rule="evenodd"/><path fill="#fff" fill-rule="evenodd" d="M244 128c0 64.065-51.935 116-116 116S12 192.065 12 128 63.935 12 128 12s116 51.935 116 116M128 233.209c58.105 0 105.209-47.104 105.209-105.209S186.105 22.79 128 22.79 22.79 69.895 22.79 128 69.895 233.209 128 233.209" clip-rule="evenodd"/></svg>
